source/img/copyright_logo.svg

<svg width="27" height="34" viewBox="0 0 27 34" fill="none" xmlns="http://www.w3.org/2000/svg">
<path d="M13.3574 0.0157537L13.5 0L27 1.40733V26.0129L13.5 34L0 26.0129V1.40733L13.3574 0.0157537ZM1.76561 25.0151L13.5 31.9573L25.2344 25.0151V14.9293L13.5493 21.8451L13.5299 23.0984L21.5465 18.3548L21.557 19.5801L13.5106 24.3885L13.4912 25.675L21.5359 20.9174L21.5465 22.1427L13.5 26.9511L5.37606 22.1182V20.8929V16.909L1.75681 14.7595L1.76561 25.0151ZM1.76561 13.4519L4.98527 15.3319L6.46747 16.2071L13.5334 12.0201L13.544 13.2454L7.5043 16.818L7.55711 16.8495L7.68738 16.9247L8.54642 17.4166L13.5334 14.4689L13.544 15.6942L9.6079 18.0222L10.5409 18.6314L10.562 18.6436L13.5334 16.902L13.544 18.1273L11.5971 19.2615L13.5845 20.4483L25.2027 13.5762L13.5651 6.61831L1.76561 13.4519ZM1.76561 12.2266L13.5599 5.31075L25.2344 12.2196V2.9897L13.5 1.76442L1.76561 2.9897V12.2266Z" fill="#666666"/>
</svg>

<svg width="27" height="34" fill="none" xmlns="http://www.w3.org/2000/svg"><path d="M13.357.016L13.5 0 27 1.407v24.606L13.5 34 0 26.013V1.407L13.357.016zm-11.591 25L13.5 31.956l11.734-6.942V14.93L13.55 21.845l-.02 1.253 8.018-4.743.01 1.225-8.046 4.809-.02 1.286 8.045-4.758.01 1.226L13.5 26.95l-8.124-4.833V16.91l-3.62-2.15.01 10.256zm0-11.564l3.22 1.88 1.481.875 7.066-4.187.011 1.225-6.04 3.573.053.031.13.076.86.492 4.986-2.948.011 1.225-3.936 2.328.933.61.021.012 2.971-1.742.011 1.225-1.947 1.135 1.988 1.186 11.618-6.872-11.638-6.958-11.8 6.834zm0-1.225L13.56 5.31l11.674 6.909V2.99L13.5 1.764 1.766 2.99v9.237z" fill="#666"/></svg>
